apps/www/public/images/partners/heartshake-icon.svg

<svg width="24" height="24" viewBox="0 0 24 24" fill="none" xmlns="http://www.w3.org/2000/svg">
<path d="M12.0003 6.1488L10.5812 4.76334C8.68921 2.91613 5.62161 2.91613 3.72957 4.76334C1.98628 6.46532 1.84923 9.14165 3.31842 10.9968C3.44378 11.1551 3.77166 11.514 3.92041 11.6592M12.0003 6.1488L13.4193 4.76334C15.3113 2.91613 18.3789 2.91613 20.271 4.76334C22.163 6.61054 22.163 9.60546 20.271 11.4527L19.2017 12.5186M12.0003 6.1488L10.7542 7.39725C10.0214 8.13141 10.0219 9.32043 10.7554 10.0539C11.4894 10.7879 12.6793 10.7879 13.4133 10.0539L16.0693 7.39787M14.9131 13.4531L17.4954 16.1809M17.4954 16.1809C18.2089 16.9347 18.1764 18.1242 17.4226 18.8378C16.6693 19.5509 15.4807 19.5189 14.7669 18.7663L13.3188 17.2217M17.4954 16.1809C18.2086 16.9344 19.3982 16.9676 20.1516 16.2543C20.9051 15.5411 20.9376 14.3521 20.2244 13.5987L17.6415 10.8703M6.13555 14.7589L7.46387 13.4306M6.13555 14.7589C5.40193 15.4925 4.21251 15.4925 3.47889 14.7589C2.74528 14.0253 2.74528 12.8358 3.47889 12.1022L4.80722 10.7739C5.54084 10.0403 6.73026 10.0403 7.46388 10.7739C8.19749 11.5075 8.19749 12.6969 7.46387 13.4306M6.13555 14.7589C5.40193 15.4925 5.40193 16.6819 6.13555 17.4155C6.86916 18.1492 8.05859 18.1492 8.7922 17.4155M7.46387 13.4306C8.19749 12.6969 9.38691 12.6969 10.1205 13.4306C10.8541 14.1642 10.8541 15.3536 10.1205 16.0872M8.7922 17.4155L10.1205 16.0872M8.7922 17.4155C8.05859 18.1492 8.05859 19.3386 8.7922 20.0722C9.52582 20.8058 10.7152 20.8058 11.4489 20.0722L12.7772 18.7439C13.5108 18.0102 13.5108 16.8208 12.7772 16.0872C12.0436 15.3536 10.8541 15.3536 10.1205 16.0872" stroke="#8F8F8F" stroke-width="1.5" stroke-linejoin="round"/>
</svg>

<svg xmlns="http://www.w3.org/2000/svg" width="24" height="24" fill="none" viewBox="0 0 24 24"><path stroke="#8f8f8f" stroke-linejoin="round" stroke-width="1.5" d="m12 6.149-1.419-1.386c-1.892-1.847-4.96-1.847-6.851 0a4.65 4.65 0 0 0-.412 6.234c.126.158.454.517.602.662M12 6.15l1.42-1.386c1.891-1.847 4.959-1.847 6.851 0a4.65 4.65 0 0 1 0 6.69l-1.07 1.066m-7.2-6.37-1.247 1.248a1.88 1.88 0 0 0 2.66 2.657l2.655-2.656m-1.156 6.055 2.582 2.728m0 0a1.88 1.88 0 0 1-2.728 2.585l-1.448-1.544m4.176-1.041a1.88 1.88 0 0 0 2.73-2.582L17.64 10.87M6.137 14.76l1.328-1.328m-1.328 1.328a1.879 1.879 0 0 1-2.657-2.657l1.328-1.328a1.879 1.879 0 0 1 2.657 2.657m-1.328 1.328a1.878 1.878 0 1 0 2.656 2.657M7.464 13.43a1.878 1.878 0 1 1 2.656 2.656m-1.328 1.329 1.329-1.329m-1.329 1.329a1.879 1.879 0 0 0 2.657 2.656l1.328-1.328a1.879 1.879 0 0 0-2.656-2.657"/></svg>
